X:724
T:Irish Hautboy,aka. JBut.720, The
T:Single Drag. JBut.720, A
N:Key signature two sharps in ms
B:John Buttrey MS, poss. Lincolnshire, early 19thC
S:https://buttreymilitarysocialtunes1800.wordpress.com/
Z:vmp.2019.Greg Bradfield-Smith.
M:2/4
L:1/8
Q:1/4=110
K:G
"_Key sig 2 sharps in ms"DGGA|(3(BcB) BG| c2cA|BGE2|
DGGA|(3(BcB) ge|dBAB|G2G2:|
|:gfed|efge|dBBA|BGED|
gfed|efge|dBAB|G2G2:|

